!!!!SEGMENT: Ric1002e-Requiem-Sanctus.krn
!!!id: Ric1002e
!!!AGN: Mass; Sanctus
!!!SCT: Elzinga (1979)
!!!voices: 6
!!!COM: Jean Richafort
!!!OTL: Sanctus
!!!OPR: Requiem
**kern	**kern	**kern	**kern	**kern	**kern
*part6	*part5	*part4	*part3	*part2	*part1
*staff6	*staff5	*staff4	*staff3	*staff2	*staff1
*I"Bassus	*I"Tenor III	*I"Tenor II	*I"Tenor I	*I"Altus	*I"Superius
*I'B	*I'T. III	*I'T. II	*I'T. I	*I'A	*I'S
*clefF4	*clefGv2	*clefGv2	*clefGv2	*clefGv2	*clefG2
*k[]	*k[]	*k[]	*k[]	*k[]	*k[]
*C:	*C:	*C:	*C:	*C:	*C:
*M2/1	*M2/1	*M2/1	*M2/1	*M2/1	*M2/1
*met(C|)	*met(C|)	*met(C|)	*met(C|)	*met(C|)	*met(C|)
!!section: Sanctus
!!!OMD: Sanctus
=1	=1	=1	=1	=1	=1
!	!LO:TX:a:t=Canon&colon; tenor III/tenor II at the fifth	!	!	!	!
0A	0r	0r	0r	0A	[0a
=2	=2	=2	=2	=2	=2
1F	0r	0r	0A	1c	0a]
1D	.	.	.	1d	.
=3	=3	=3	=3	=3	=3
0A	0r	0r	1.c	1e	[0a
.	.	.	.	[1A	.
.	.	.	4B	.	.
.	.	.	4A	.	.
=4	=4	=4	=4	=4	=4
0AA	0r	0r	1e	2A]	0a]
.	.	.	.	2B	.
.	.	.	1A	1c	.
=5	=5	=5	=5	=5	=5
0D	0r	0r	2.A	2.F	[0a
.	.	.	4G	4G	.
.	.	.	4F	4A	.
.	.	.	4E	4D	.
.	.	.	[2F	[2d	.
=6	=6	=6	=6	=6	=6
0AA	0r	0r	2F]	2d]	0a]
.	.	.	4E	4c	.
.	.	.	4D	4B	.
.	.	.	1E	[1c	.
=7	=7	=7	=7	=7	=7
2.A	0F	0r	1r	2c]	[0a
.	.	.	.	2F	.
4G	.	.	.	.	.
4F	.	.	2.A	1c	.
4E	.	.	.	.	.
[2F	.	.	.	.	.
.	.	.	4G	.	.
=8	=8	=8	=8	=8	=8
2F]	1F	0r	4F	2.A	0a]
.	.	.	4E	.	.
2D	.	.	2.F	.	.
.	.	.	.	4B	.
1A	1F	.	.	2c	.
.	.	.	4E	.	.
.	.	.	2D	2d	.
=9	=9	=9	=9	=9	=9
0r	1G	0c	1.C	0e	0r
.	1E	.	.	.	.
.	.	.	2c	.	.
=10	=10	=10	=10	=10	=10
2.A	2.F	1c	4c	1c	0r
.	.	.	4B	.	.
.	.	.	2.A	.	.
4G	4G	.	.	.	.
4F	4A	1c	.	[1f	.
4E	4B-i	.	4G	.	.
[2F	[2A	.	4F	.	.
.	.	.	4E	.	.
=11	=11	=11	=11	=11	=11
2F]	2A]	1d	1D	1f]	0r
2D	4G	.	.	.	.
.	4F	.	.	.	.
1E	1G	1B	2r	[1e	.
.	.	.	2G	.	.
=12	=12	=12	=12	=12	=12
1AA	[0A	2.c	2E	1e]	0a
.	.	.	2.A	.	.
.	.	4d	.	.	.
2r	.	4e	.	1c	.
.	.	4f	4G	.	.
[2A	.	[2e	[2c	.	.
=13	=13	=13	=13	=13	=13
4A]	0A]	2e]	4c]	0f	1a
4G	.	.	4B	.	.
4F	.	4d	4A	.	.
4E	.	4c	4G	.	.
2F	.	1d	2.A	.	1a
2D	.	.	.	.	.
.	.	.	4B	.	.
=14	=14	=14	=14	=14	=14
0A	0r	[0e	2.c	2.e	0a
.	.	.	4B	4d	.
.	.	.	4A	4c	.
.	.	.	4G	4B	.
.	.	.	[2A	[2c	.
=15	=15	=15	=15	=15	=15
0AA	0r	0e]	2A]	4c]	1a
.	.	.	.	4A	.
.	.	.	4G	1d	.
.	.	.	4F	.	.
.	.	.	1E	.	[1a
.	.	.	.	2c#i	.
=16	=16	=16	=16	=16	=16
1D	1r	0r	1F	1d	1a]
2C	[1A	.	2E	2r	1a
[2D	.	.	[2F	[2d	.
=17	=17	=17	=17	=17	=17
4D]	1A]	0r	4F]	4d]	0a
4C	.	.	4D	4e	.
4D	.	.	1d	4f	.
8CL	.	.	.	4d	.
8BBJ	.	.	.	.	.
1AA	1A	.	.	2e	.
.	.	.	2c	[2f	.
=18	=18	=18	=18	=18	=18
2r	1B	1r	2.d	4f]	1r
.	.	.	.	4d	.
2GG	.	.	.	2.g	.
.	.	.	4B	.	.
[1C	1G	[1e	4c	.	1g
.	.	.	4d	4f	.
.	.	.	[2e	4e	.
.	.	.	.	4d	.
=19	=19	=19	=19	=19	=19
1C]	0A	1e]	4e]	2.c	1.cc
.	.	.	4d	.	.
.	.	.	4c	.	.
.	.	.	4B	4d	.
1AA	.	1e	1c	1e	.
.	.	.	.	.	2b
=20	=20	=20	=20	=20	=20
1D	0F	1f	1d	0A	2.a
.	.	.	.	.	4g
1F	.	1B	2r	.	4f
.	.	.	.	.	4e
.	.	.	2D	.	[2a
=21	=21	=21	=21	=21	=21
0E	0r	0e	2.G	0r	2a]
.	.	.	.	.	4g
.	.	.	4A	.	4f
.	.	.	1B	.	1g
=22	=22	=22	=22	=22	=22
1r	0r	0c	0A	1r	0a
1A	.	.	.	1c	.
=23	=23	=23	=23	=23	=23
1G	0r	0r	0r	1d	0r
1E	.	.	.	1e	.
=24	=24	=24	=24	=24	=24
1r	1.A	0r	0c	1.e	0r
1A	.	.	.	.	.
.	2A	.	.	4d	.
.	.	.	.	4c	.
=25	=25	=25	=25	=25	=25
2.G	1B	0r	1d	0g	0r
4F	.	.	.	.	.
2E	1G	.	1e	.	.
2D	.	.	.	.	.
=26	=26	=26	=26	=26	=26
2C	0A	1.e	2.e	1r	0r
2BB	.	.	.	.	.
.	.	.	4d	.	.
1AA	.	.	4c	[1c	.
.	.	.	4B	.	.
.	.	2e	[2A	.	.
=27	=27	=27	=27	=27	=27
2r	0F	1f	2A]	2c]	0f
2A	.	.	2.D	2d	.
2A	.	1d	.	1f	.
.	.	.	4E	.	.
2A	.	.	2F	.	.
=28	=28	=28	=28	=28	=28
1.c	0r	0e	2C	1e	1g
.	.	.	2c	.	.
.	.	.	2.A	1c	1a
2B	.	.	.	.	.
.	.	.	4B	.	.
=29	=29	=29	=29	=29	=29
2.A	0F	0c	1.c	1r	1a
4G	.	.	.	.	.
2F	.	.	.	[1A	[1a
2E	.	.	2c	.	.
=30	=30	=30	=30	=30	=30
1.D	1F	0r	1d	1A]	1a]
.	1D	.	1d	1A	1a
4C	.	.	.	.	.
4BB	.	.	.	.	.
=31	=31	=31	=31	=31	=31
1AA	1C	0c	1e	0c	1a
[1A	[1F	.	2r	.	1a
.	.	.	2c	.	.
=32	=32	=32	=32	=32	=32
2A]	1F]	1c	2.A	2.F	0a
2G	.	.	.	.	.
.	.	.	4B	4G	.
2.F	1F	1A	2c	2A	.
.	.	.	2d	2D	.
4E	.	.	.	.	.
=33	=33	=33	=33	=33	=33
1G	0r	1G	1B	1d	1b
1C	.	[1c	1c	2.c	2a
.	.	.	.	.	2g
.	.	.	.	4d	.
=34	=34	=34	=34	=34	=34
1r	0r	1c]	1C	2e	1a
.	.	.	.	1f	.
1C	.	1c	2.c	.	1g
.	.	.	.	2e	.
.	.	.	4B	.	.
=35	=35	=35	=35	=35	=35
2.c	0F	0r	2.A	1f	[0f
4B	.	.	4G	.	.
2A	.	.	2F	1c	.
2G	.	.	2E	.	.
=36	=36	=36	=36	=36	=36
2F	1F	0r	4D	0d	0f]
.	.	.	4C	.	.
2E	.	.	1c	.	.
1D	1F	.	.	.	.
.	.	.	2B	.	.
=37	=37	=37	=37	=37	=37
0C	0G	0c	0c	0e	0r
=38	=38	=38	=38	=38	=38
0r	1A	1c	2.F	0r	0f
.	.	.	4G	.	.
.	1F	1c	1A	.	.
=39	=39	=39	=39	=39	=39
1r	0B-i	0d	0G	1r	0g
1G	.	.	.	1d	.
=40	=40	=40	=40	=40	=40
2.c	[0Al	1e	1r	1c	1.a
4B	.	.	.	.	.
2.A	.	1c	1F	1c	.
.	.	.	.	.	2a
4G	.	.	.	.	.
=41	=41	=41	=41	=41	=41
2F	0A_	0f	2F	2A	2a
2E	.	.	2G	2A	2a
1D	.	.	2A	1d	2.a
.	.	.	2B	.	.
.	.	.	.	.	4g
=42	=42	=42	=42	=42	=42
[0AAl	0A_	[0el	2c	[0cl	[0al
.	.	.	1A	.	.
.	.	.	4G	.	.
.	.	.	4F	.	.
=	=	=	=	=	=
00AA]	00A]	00e]	00E	00c]	00a]
=||	=||	=||	=||	=||	=||
*M2/1	*M2/1	*M2/1	*M2/1	*M2/1	*M2/1
*met(C|)	*met(C|)	*met(C|)	*met(C|)	*met(C|)	*met(C|)
!!section: Benedictus
!!!OMD: Benedictus
!	!	!	!	!	!LO:TX:a:t=Benedictus
!	!LO:TX:a:t=Canon&colon; tenor III/tenor II at the fifth	!	!	!	!
0AA	0r	0r	[0A	0e	0r
=43	=43	=43	=43	=43	=43
1C	0r	0r	0A]	1e	0r
[1D	.	.	.	[1f	.
=44	=44	=44	=44	=44	=44
2D]	0r	0r	1B-X	2f]	0r
2GG	.	.	.	2e	.
1GG	.	.	1B-i	[1d	.
=45	=45	=45	=45	=45	=45
0D	0r	0r	2.A	2d]	[0a
.	.	.	.	4c	.
.	.	.	4G	4B	.
.	.	.	4F	2A	.
.	.	.	4E	.	.
.	.	.	[2A	2d	.
=46	=46	=46	=46	=46	=46
0F	0r	0r	4A]	2c	0a]
.	.	.	4G	.	.
.	.	.	4F	2.d	.
.	.	.	4E	.	.
.	.	.	2D	.	.
.	.	.	.	8cL	.
.	.	.	.	8BJ	.
.	.	.	[2d	2A	.
=47	=47	=47	=47	=47	=47
0G	0r	0r	4d]	2G	0b
.	.	.	4c	.	.
.	.	.	4B	2.g	.
.	.	.	4A	.	.
.	.	.	4G	.	.
.	.	.	4A	4f	.
.	.	.	4B	[2d	.
.	.	.	4c	.	.
=48	=48	=48	=48	=48	=48
0D	0r	0r	2.d	4d]	1a
.	.	.	.	4e	.
.	.	.	.	2.f	.
.	.	.	8cL	.	.
.	.	.	8BJ	.	.
.	.	.	2A	.	[1a
.	.	.	.	4e	.
.	.	.	[2F	2d	.
=49	=49	=49	=49	=49	=49
0r	0r	0r	4F]	2c	2a]
.	.	.	4E	.	.
.	.	.	2D	1f	4g
.	.	.	.	.	4f
.	.	.	1C	.	1g
.	.	.	.	2e	.
=50	=50	=50	=50	=50	=50
[0D	0r	0r	2r	1f	0r
.	.	.	2A	.	.
.	.	.	[1B-i	1F	.
=51	=51	=51	=51	=51	=51
0D]	0r	0r	2B-]	2r	0r
.	.	.	2A	2A	.
.	.	.	1F	[1B-i	.
=52	=52	=52	=52	=52	=52
0E-X	0r	0r	1G	2B-]	0r
.	.	.	.	8B-iL	.
.	.	.	.	8A	.
.	.	.	.	8G	.
.	.	.	.	8FJ	.
.	.	.	[1B-i	1G	.
=53	=53	=53	=53	=53	=53
1D	0r	0r	2B-]	1F	1r
.	.	.	4A	.	.
.	.	.	4G	.	.
[1D	.	.	2A	[1f	1a
.	.	.	2D	.	.
=54	=54	=54	=54	=54	=54
2D]	0r	0r	1d	2f]	1b
2BB	.	.	.	4e	.
.	.	.	.	4d	.
1C	.	.	1c	1e	2g
.	.	.	.	.	[2a
=55	=55	=55	=55	=55	=55
1.D	0F	0r	0A	2d	4a]
.	.	.	.	.	4g
.	.	.	.	2.f	4f
.	.	.	.	.	4e
.	.	.	.	.	2d
.	.	.	.	4e	.
[2F	.	.	.	4d	[2a
.	.	.	.	4c	.
=56	=56	=56	=56	=56	=56
4F]	1F	0r	0r	2d	4a]
4E	.	.	.	.	4g
4D	.	.	.	1c	4f
4C	.	.	.	.	4e
1D	1F	.	.	.	2f
.	.	.	.	2B	2f
=57	=57	=57	=57	=57	=57
0C	1G	0r	0r	1c	0e
.	1E	.	.	2r	.
.	.	.	.	2G	.
=58	=58	=58	=58	=58	=58
0r	1F	0c	2r	1A	0r
.	.	.	2F	.	.
.	1G	.	2E	2G	.
.	.	.	2C	[2g	.
=59	=59	=59	=59	=59	=59
0r	0A	1c	2.F	2g]	0r
.	.	.	.	4f#i	.
.	.	.	4G	4e	.
.	.	1c	2A	1f#i	.
.	.	.	2F	.	.
=60	=60	=60	=60	=60	=60
0r	0G	1d	4B-i	1g	0d
.	.	.	4A	.	.
.	.	.	4G	.	.
.	.	.	4F	.	.
.	.	1B	1G	2r	.
.	.	.	.	2G	.
=61	=61	=61	=61	=61	=61
1r	0r	1c	0F	0A	0f
2r	.	1d	.	.	.
2F	.	.	.	.	.
=62	=62	=62	=62	=62	=62
2E	0r	0e	2r	0G	0g
2C	.	.	2c	.	.
2.E	.	.	2G	.	.
.	.	.	[2c	.	.
4F	.	.	.	.	.
=63	=63	=63	=63	=63	=63
0G	0r	0d	2c]	1r	1g
.	.	.	4B	.	.
.	.	.	4A	.	.
.	.	.	1B	1d	1g
=64	=64	=64	=64	=64	=64
0F	0F	0r	1c	1f	[0a
.	.	.	1A	2c	.
.	.	.	.	[2f	.
=65	=65	=65	=65	=65	=65
1r	1F	0r	0r	4f]	0a]
.	.	.	.	4e	.
.	.	.	.	2d	.
2r	1F	.	.	2c	.
2F	.	.	.	2d	.
=66	=66	=66	=66	=66	=66
2E	1G	0r	2r	0e	1g
2.C	.	.	2c	.	.
.	1E	.	2.c	.	[1a
4BB	.	.	.	.	.
4AA	.	.	.	.	.
4GG	.	.	4B	.	.
=67	=67	=67	=67	=67	=67
2FF	1F	0c	2A	1r	2a]
2F	.	.	2F	.	4g
.	.	.	.	.	4a
2E	1G	.	1c	1e	[1g
2C	.	.	.	.	.
=68	=68	=68	=68	=68	=68
2.F	0A	1c	0r	0f	2g]
.	.	.	.	.	4f
4G	.	.	.	.	4e
2A	.	1c	.	.	1f
2F	.	.	.	.	.
=69	=69	=69	=69	=69	=69
2.B-i	[0Gl	1d	2r	1d	[0gl
.	.	.	2.G	.	.
4A	.	.	.	.	.
2.G	.	1B	.	[1e	.
.	.	.	4F	.	.
.	.	.	4E	.	.
4F	.	.	4D	.	.
=70	=70	=70	=70	=70	=70
2E	0G_	1c	2C	1e]	0g_
2C	.	.	1c	.	.
1G	.	1d	.	1d	.
.	.	.	2B	.	.
=71	=71	=71	=71	=71	=71
0C	0G_	0e	2c	0c	0g_
.	.	.	4C	.	.
.	.	.	4D	.	.
.	.	.	4E	.	.
.	.	.	4F	.	.
.	.	.	[2G	.	.
=72	=72	=72	=72	=72	=72
[0GGl	0G_	[0dl	2G]	[0Bl	0g_
.	.	.	2D	.	.
.	.	.	1G	.	.
=73	=73	=73	=73	=73	=73
00GG]	00G]	00d]	00Dl	00B]	00g]
==	==	==	==	==	==
*-	*-	*-	*-	*-	*-
!!!system-decoration: [*]
!!!RDF**kern: i = editorial accidental
!!!RDF**kern: l = terminal long
!!!ENC: Benjamin Ory
!!!END: 2021/4/9
!!!EED: Benjamin Ory
!!!EEV: 2021/05/02
!!!YEC: Copyright 2021 Benjamin Ory, All Rights Reserved
!!!ONB: Translated from MusicXML on 2021/05/02
